X:1
T:Title
%%score { ( 1 3 ) | ( 2 4 ) }
L:1/8
M:4/4
K:D
V:1 treble nm="Grand Piano"
V:3 treble 
V:2 bass 
V:4 bass 
V:1
 z4 z2[Q:1/4=100] DE | F2 D[GB] [FA]2 DE | F2 D[DB] [DA]2 [DF][Fd] | c2 cc d2 cB | %4
[M:9/8] A6- A z z |[M:4/4] [Fd]2 [Fd][Fd] c2 cc | B2 dB [DFA]2 [DGB][B,EG] | %7
 [DF]2 [DF][DF] [CA]2 [CG][CE] |[M:3/4] D6 |[M:1/4] A>A |[M:4/4] A6 z2 | d6 z2 | %12
 e2 dB [FA]2 [EG]F |[M:9/8] z2 B,/C/- C/D/ C2- C[CGA]>[CGA] | %14
[M:4/4] [DFA]2 [A,DF][DFA] [Fd]2 [Gc][Ad] | e2 dB [DFA]2 [DGB][B,EG] | %16
 [DF]2 [DF][DF] [CA]2 [CG][CE] |[M:3/4] D6 |] %18
V:2
 z4 z2 [D,F,][D,G,D] | [D,A,D]2 [D,F,][D,D] [D,D]2 [F,A,][E,A,C] | %2
 [D,A,D]2 [B,,G,][G,,G,] [D,F,]2 [D,A,][D,A,] | [E,A,E]2 [E,A,E][E,A,E] [E,^G,E]2 [E,A,E][E,DE] | %4
[M:9/8][K:treble] .[CE]3 z3 z3 |[M:4/4][K:bass] [D,A,]2 [D,A,][D,A,] [F,^A,F]2 [F,A,E][F,A,E] | %6
 [G,B,D]2 [G,B,G][G,DG][K:bass] D,2 G,,G,, | [A,,A,]2 [A,,A,][A,,A,] [A,,E,]2 [A,,E,][A,,G,] | %8
[M:3/4] [D,F,]6 |[M:1/4] z2 |[M:4/4] z2 [D,A,]>F,[K:treble] [A,C]2 (3GGG | F6[K:bass] z2 | %12
 [G,B,G]2 [G,B,G][G,DG][K:bass] [D,D]2 [C,A,][D,A,D] | %13
[M:9/8] [E,A,C]2 [E,^G,]/[E,A,]/- [E,A,]/[E,B,]/ [A,,A,]2- [A,,A,]A,,>A,, | %14
[M:4/4] D,2 D,D, [D,A,]2 [E,A,][F,A,] | [G,B,G]2 [G,B,G][G,DG][K:bass] D,2 G,,G,, | %16
 [A,,A,]2 [A,,A,][A,,A,] [A,,E,]2 [A,,E,][A,,G,] |[M:3/4] [D,F,]6 |] %18
V:3
 x8 | x8 | x8 | x8 |[M:9/8] z2 F- F G2- GAA |[M:4/4] x8 | x8 | x8 |[M:3/4] x6 |[M:1/4] x2 | %10
[M:4/4] z2 F>D E2 (3cBc | z2 (3A,A,A, A,2 [Ad]>[Ad] | x8 |[M:9/8] E6- E z z |[M:4/4] x8 | x8 | x8 | %17
[M:3/4] x6 |] %18
V:4
 x8 | x8 | x8 | x8 |[M:9/8][K:treble] A,2- [A,D]- [A,-D] [A,E]2- [A,E-]/E/[A,CG][A,CG] | %5
[M:4/4][K:bass] x8 | x4[K:bass] x4 | x8 |[M:3/4] x6 |[M:1/4] x2 |[M:4/4] x4[K:treble] x4 | %11
 z2[K:bass] (3D,D,D, D,2 [F,=C]>[F,C] | x4[K:bass] x4 |[M:9/8] x9 |[M:4/4] x8 | x4[K:bass] x4 | %16
 x8 |[M:3/4] x6 |] %18

